!!!OTL: WAT HAEWWK DENN MIENEM SCHAETZCHEN
!!!ARE: Europa, Mitteleuropa, Deutschland, Hannover
!!!SCT: E0652
!!!YEM: Copyright 1995, estate of Helmut Schaffrath.
**kern
*ICvox
*Ivox
*M2/4
*k[f#]
*G:
{8d
=1
8g
8b
8dd
8b
=2
8.a
16a
8a}
{8d
=3
8g
8b
8dd
8b
=4
4a
4r}
=5
{4dd
4d
=6
8.g
16g
8g}
{8g
=7
8g
8b
8dd
8b
=8
4g
8r}
==
!!!AGN: Liebes - Lied
!!!ONB: ESAC (Essen Associative Code) Database: ERK2
!!!AMT: simple duple
!!!AIN: vox
!!!EED: Helmut Schaffrath
!!!EEV: 1.0
*-
